X: 38369
T: Standing Abbey, The
R: hornpipe
M: 4/4
K: Gmajor
|:GFGA (3BAG gf|egce dBGB|ce (3ABc BdGB|AD (3FGA dcBA|
GFGA (3BAG gf|egce dBGB|ce (3ABc BdGB|ADFA G3D:|
|:dcdf afdf|abc'b agfe|defg abc'b|(3aba (3gfe (3ded (3cBA|
GFGA (3BAG gf|egce dBGB|(3cec Ac (3BdB GB|AD (3FGA G3D:|

